img/Drink.svg

<svg width="33" height="32" viewBox="0 0 33 32" fill="none" xmlns="http://www.w3.org/2000/svg">
<path d="M17.6053 6.51327V3.68142L23.5987 2.25693C24.149 2.12614 24.4814 1.56538 24.332 1.01987L24.3069 0.928159C24.1649 0.40989 23.6388 0.096457 23.1154 0.218419L16.1678 1.83755C15.7151 1.94305 15.3948 2.3466 15.3948 2.81145V6.51327H8.16669C7.6144 6.51327 7.16669 6.96099 7.16669 7.51327V11.115H25.8334V7.51327C25.8334 6.96099 25.3856 6.51327 24.8334 6.51327H17.6053Z" fill="#FF7010"/>
<path d="M7.25269 12.8848L9.79479 30.1591C9.94216 31.2211 10.9001 31.9998 11.9685 31.9998H20.9211C22.0264 31.9998 22.9474 31.2211 23.0948 30.1591L25.6369 12.8848H7.25269Z" fill="#FF7010"/>
</svg>

<svg width="33" height="32" fill="none" xmlns="http://www.w3.org/2000/svg"><path d="M17.605 6.513V3.681L23.6 2.257a1 1 0 0 0 .733-1.237l-.025-.092a1 1 0 0 0-1.192-.71l-6.947 1.62a1 1 0 0 0-.773.973v3.702H8.167a1 1 0 0 0-1 1v3.602h18.666V7.513a1 1 0 0 0-1-1h-7.228ZM7.253 12.885l2.542 17.274C9.942 31.221 10.9 32 11.969 32h8.952c1.105 0 2.026-.778 2.174-1.84l2.542-17.274H7.253Z" fill="#FF7010"/></svg>
